X: 1653
T: Annie's Favourite
R: hornpipe
M: 4/4
K: Gmajor
(3DEF|:G2BG ABcA|defd gedc|BABd cBAG|FGAF DEFD|
G2BG ABcA|defd gedc|BABd cBAG|1 DGGF G2 (3DEF:|2 DGGF G2Bd||
gfga gfd2|gfga gfde|fefg afge|fde^c dcAF|
G2BG ABcA|defd gedc|BABd cBAG|1 DGGF G2Bd:|2 DGGF G2||

